www/assets/images/test_icons/flags/HK.svg

<svg fill="none" height="15" viewBox="0 0 21 15" width="21" xmlns="http://www.w3.org/2000/svg" xmlns:xlink="http://www.w3.org/1999/xlink"><mask id="a" height="15" maskUnits="userSpaceOnUse" width="21" x="0" y="0"><path d="m19 0h-17c-1.10457 0-2 .89543-2 2v11c0 1.1046.89543 2 2 2h17c1.1046 0 2-.8954 2-2v-11c0-1.10457-.8954-2-2-2z" fill="#fff"/></mask><g mask="url(#a)"><path d="m19 0h-17c-1.10457 0-2 .89543-2 2v11c0 1.1046.89543 2 2 2h17c1.1046 0 2-.8954 2-2v-11c0-1.10457-.8954-2-2-2z" fill="#de2910"/><path clip-rule="evenodd" d="m10.155 7.514c-2.71201-1.148-1.51001-4.684 1.085-4.508-.526.27-.602.774-.302 1.24.336.524-.03 1.365-.484 1.57-.74601.335-.89501 1.23-.3 1.698zm.227-.122c.253-2.933 3.99-2.883 4.62-.362-.418-.415-.92-.332-1.272.098-.393.48-1.306.39-1.64.023-.55-.604-1.45-.47-1.708.242zm.092.293c2.88-.615 3.924 2.972 1.697 4.314.276-.523.05-.98-.464-1.19-.574-.236-.756-1.135-.502-1.562.418-.703.026-1.523-.73-1.563zm-3.72401 3.295c.58.1.945-.257.986-.81.047-.62.845-1.07 1.33-.96.798.18 1.45701-.446 1.26001-1.178 1.476 2.55-1.61301 4.65-3.57701 2.947zm-.597-5.48c.115.578.578.79 1.11.63.595-.178 1.302.406 1.373.9.118.808.938 1.198 1.55001.754-1.85001 2.29-4.92001.16-4.03301-2.285z" fill="#fff" fill-rule="evenodd"/><path d="m19 .5h-17c-.82843 0-1.5.67157-1.5 1.5v11c0 .8284.67157 1.5 1.5 1.5h17c.8284 0 1.5-.6716 1.5-1.5v-11c0-.82843-.6716-1.5-1.5-1.5z" stroke="#000" stroke-opacity=".1"/></g></svg>

<svg width="21" height="15" viewBox="0 0 21 15" fill="none" xmlns="http://www.w3.org/2000/svg">
<mask id="mask0_3_139" style="mask-type:alpha" maskUnits="userSpaceOnUse" x="0" y="0" width="21" height="15">
<path d="M19 0H2C0.89543 0 0 0.89543 0 2V13C0 14.1046 0.89543 15 2 15H19C20.1046 15 21 14.1046 21 13V2C21 0.89543 20.1046 0 19 0Z" fill="white"/>
</mask>
<g mask="url(#mask0_3_139)">
<path d="M19 0H2C0.89543 0 0 0.89543 0 2V13C0 14.1046 0.89543 15 2 15H19C20.1046 15 21 14.1046 21 13V2C21 0.89543 20.1046 0 19 0Z" fill="#DE2910"/>
<path fill-rule="evenodd" clip-rule="evenodd" d="M10.155 7.514C7.44299 6.366 8.64499 2.83 11.24 3.006C10.714 3.276 10.638 3.78 10.938 4.246C11.274 4.77 10.908 5.611 10.454 5.816C9.70799 6.151 9.55899 7.046 10.154 7.514H10.155ZM10.382 7.392C10.635 4.459 14.372 4.509 15.002 7.03C14.584 6.615 14.082 6.698 13.73 7.128C13.337 7.608 12.424 7.518 12.09 7.151C11.54 6.547 10.64 6.681 10.382 7.393V7.392ZM10.474 7.685C13.354 7.07 14.398 10.657 12.171 11.999C12.447 11.476 12.221 11.019 11.707 10.809C11.133 10.573 10.951 9.674 11.205 9.247C11.623 8.544 11.231 7.724 10.475 7.684L10.474 7.685ZM6.74999 10.98C7.32999 11.08 7.69499 10.723 7.73599 10.17C7.78299 9.55 8.58099 9.1 9.06599 9.21C9.86399 9.39 10.523 8.764 10.326 8.032C11.802 10.582 8.71299 12.682 6.74899 10.979L6.74999 10.98ZM6.15299 5.5C6.26799 6.078 6.73099 6.29 7.26299 6.13C7.85799 5.952 8.56499 6.536 8.63599 7.03C8.75399 7.838 9.57399 8.228 10.186 7.784C8.33599 10.074 5.26599 7.944 6.15299 5.499V5.5Z" fill="white"/>
<path d="M19 0.5H2C1.17157 0.5 0.5 1.17157 0.5 2V13C0.5 13.8284 1.17157 14.5 2 14.5H19C19.8284 14.5 20.5 13.8284 20.5 13V2C20.5 1.17157 19.8284 0.5 19 0.5Z" stroke="black" stroke-opacity="0.1"/>
</g>
</svg>
